X:1
T:Folle è ben
T:Mauritio Cazzati
T:Source : Arie e Cantate---Libro primo---Venetia---A.Vincenti---1649. Editor : André Vierendeels (31/01/17).
T:Notes : Original clefs C1, F4 Figures in BC are notated in original print
T:Folle è ben
T:Aria
T:©
T:©
T:©
T:©
T:©
T:©
T:©
T:©
T:©
T:©
C:Mauritio Cazzati
Z:©
%%score 1 2
L:1/8
Q:1/4=120
M:4/4
K:C
V:1 treble nm="Soprano" snm="S"
V:2 bass nm="MusicXML Part"
V:1
 z2 eB c2 z c | de fg e2 de | cccB AA z G/G/ | ABcA BGcc | defg e2 z g | dc de c/G/A/B/ c/d/e/f/ | %6
w: Foll' è ben chi|per _ bel- * tà, è men-|ti- ta'e in- con- stan- te si ris-|sol- ve paz- zo'A- ma- te por- re'in|ma- * no'ad al- trui sua|li- * ber- * tà _ _ _ _ _ _ _|
 e2 ed c2 Bc | A2 Bc dc Bc | A6 Bc | dc Bc !fermata!A4 ::[M:3/4] z2 z c BA | B2 BG AB | c2 ce d>e | %13
w: por- re'in _ ma- no'ad al-|trui sua _ li- * ber- *|tà sua _|li- * ber- * tà.|Un crin pos-|tic- cio, che pa- rà|ric- cio l'al- let- te-|
 c4 G2 | c3 d e2 | d2 d2 G2 | A3 B c2 | B2 G2 d2 | d3 e ^c2 | d4 ff | e3 d c_B | A2 AA dc | %22
w: rà, mà|dot- ta mà|de- stra nel|ar- ti d'A-|mo- re ch'il|tut- to ben-|tà al- la|pro- di- ga sua|de- stra fa- rà dell'|
 B2 B^c de | fe e3 d | d3 e fe | dc B3 A | A6 ::[M:4/4] z2 eB cc z c | de fg eede | %29
w: o- ro im- po- *|ne- * rir l'e-|tà, im- po- *|ne- * rir l'e-|tà.|Lo con- du- ce un|cie- * co _ Di- o, è'u- na|
 cccB AA z G/G/ | ABcd BBgg | fe de fe d_e | _e d2 c c2 z e/d/ | cBAB ^GGGG | ABcA BB z d/e/ | %35
w: vec- chia va- cil- lan- te on- de|giun- ge'il suo de- di- o pri- vo|d'oc- * chi'è _ zo- * pi- *|can- * * te è la|don- na ben sac- cor- da, fa d'un|cie- co,ad un scian- ca- to, fà la|
 fedc B4 | A2 BB cB cB | cB cB c3 B- | A8 | z2 c6 | z A FF/G/ AA BB/c/ | c2 c2 z2 e2- | %42
w: mu- ta, fa la sor-|da, fa la mu- * ta _|fa _ la _ sor- da,|_|ma|se gl'oc- chi v'ag- giun- ge ei di- ci-|vet- ta, è|
 e2 z d/e/ c2 c2 | z cde f4 | z fed e3 d/e/4f/4 | d4 c4 | G2 GA/B/ cc/c/ cc/B/ | d2 d2 BBcd | %48
w: _ chà ben to- sto|al suo vo- ler,|al suo vo- ler _ _ _|get- ta|A- ma- ri- a- ma- to, nell' a- ma- to|se- no, sin che re- st'à|
 G2 G2 GGAB | AA z/ d/A/B/ c2 c2 |[M:3/4] ^c3 c c2 | ^d3 d d2 | z2 z2 ed | ^c2 B2 A2 | B3 ^c d2 | %55
w: pie- no tut- to dis- po-|glia- to, è pol- cia'in- fi- ne,|pa- li- do,|squa- li- do|del- le|gio- ie d'A-|mor di mo-|
 c2 c3 B- | A4 z2 | z6 | z2 z2 ed | ^c2 B2 A2 | B4 z2 | z6 | z2 z2 dc | B2 A2 G2 | A4 B2 | %65
w: stra'il fi- ne,|_||del- le|gio- ie d'A-|mor,||del- le|gio- ie d'A-|mor di|
 ^c2 A2 d2- | d2 d3 ^c | d6 |[M:4/4] dd AA/B/ c2 c2 | z/ c/c/c/ c>B d2 d2 |[M:3/4] z d ef e2 | %71
w: no- * stra'il|_ fi- ne,|_|poi ch'al mon- do'è pa- le- se,|la pal- dez- za u- sar- si,|al- la Fran- ce-|
 dA Bc B2 | A e2 z e2 | c3 d e2 | e2 d4 | c4 G2 | GA Bc d2 | e2 f3 e | d2 c2 dd/g/ | %79
w: se, al- la Fran- ce-|se poi ch'al|mo,- do'è pa-|le- *|se, la|pal- * li- * dez-|za'u- sar- si'al|la Fran- ce- se al|
 c d e f dd/g/ | cd ef d2 | c4 z e | AB cd B2 | !fermata!A2 z2 z2 |] %84
w: la Fran- * ce- * se, al-|la _ Fran- * ce-|se, al-|la _ Fran- * ce-|se.|
V:2
"^BC" A,2 ^G,2 A,3 A, | G,2 G,,2 C,2 B,,2 | A,,2 A,G, F,2 E,2 | F,G,A,F, G,2 E,2 | %4
"^7 6" D,4 C,2 E,2 | F,2 G,2 C,4 | C,2 CB, A,2 G,2 | F,2 E,2 D,2 E,2 | A,,2 A,G, F,2 E,2 | %9
 D,2 E,2 !fermata!A,,4 ::[M:3/4] A,6 | G,4 F,2 | E,2 F,2 G,2 | C,6 | C,6 | B,,6 | A,,6 | %17
 G,,4 ^F,2 | E,6 | D,6 | E,6 | F,6 | G,4 D,2 | G,,2 A,,4 | D,3 ^C, D,2 | A,,2 E,4 | A,,6 :: %27
[M:4/4] A,2 ^G,2 A,3 A, | A,2 G,,2 C,2 B,,2 | A,,2 A,G, F,2 E,2 | F,4 G,2 E,2 | F,2 G,2 A,2 F,2 | %32
 G,2 G,,2 C,2 z C/B,/ |"^#" A,G,F,D, E,4 | A,,4 G,,4 | D,4 E,4 | A,,2 G,,2 F,,2 E,,2 | %37
 D,,3 D,, E,,4 | A,,8 | F,,8 | F,4 D,4 | C,8 | E,4 F,4- | F,4 z F,G,A, |"^(b)" B,4 C2 F,2 | %45
 G,4 C,4 | C,8 | G,,8- | G,,8 | D,4 A,,4 |[M:3/4] A,6 | ^F,6 | E,6 | A,6 |"^#" E,4 D,2- | D,2 E,4 | %56
 A,,4 A,G, | ^F,2 E,2 D,2 | E,6 | A,6 | G,4 G,F, | E,2 D,2 C,2 | D,6 | G,,6 | D,2 ^C,2 B,,2 | %65
 A,,2 A,2 G,2 | ^F,2 E,4 | D,6 |[M:4/4] D,4 A,,4- | A,,4 G,,4 |[M:3/4] D,2 G,,2 A,,2 | %71
 D,2 A,,2 E,2 | A,,4 E,,2 | F,,4 E,,2 | F,,2 G,,4 | C,6 | B,,6 | C,3 D, E,F, | G,2 A,2 G,2 | %79
 A,2 F,2 G,2 | A,2 F,2 G,2 | C,4 z C, | F,2 D,2 E,2 | !fermata!A,,2 z2 z2 |] %84

